X:111
T:Limestone Rock (reel), The  
B:CRE1.113 (Chloch Aoil)
F:file ID: cre.1/111lime_r
S:Ned Stapleton
M:C
L:1/8
Q:180
R:reel
K:G
dc|BGG2 AGG2|DGG2 A2dc|BGG2 AGAB|c2Bc A2dc|
BGG2 AGG2|DGG2 A2dc|BGG2 AGAB|c2Bc A2||
Bd|e2dg e2dg|e2dB A2Bd|eBB2 gBB2|(3cBA BG A2Bd|
e^fgf eaa2|gedB A2Bd|egg^f gabg|age^f gedc||

%%%

